X:1
T:Singing for Jesus! Praising His Name!
T:Singing for Jesus! Praising His Name!
T:Arthur Pearson
T:William Flint, 1915
T:Public Domain Courtesy of the Cyber Hymnal™
T:Public Domain Courtesy of the Cyber Hymnal™
C:Arthur Pearson
Z:Public Domain
Z:Courtesy of the Cyber Hymnal™
%%score ( 1 2 ) ( 3 4 )
L:1/8
Q:1/4=105
M:4/4
K:F
V:1 treble 
V:2 treble 
V:3 bass 
V:4 bass 
V:1
 F2 C>F A2 F2 | [Fd]2 [Fc]>[F=B] [Fc]4 | [FA]2 [FA]>[FA] [DA]2 [DG][DF] | [EG]6 z2 | %4
w: 1.~Sing- ing for Je- sus!|prais- ing His name!|Glad- ly our tongues we em-|ploy;|
w: 2.~Pray- ing to Je- sus!|low- ly we bow!|Weep- ing, our sins we con-|fess;|
w: 3.~Work- ing for Je- sus!|striv- ing to save|Child- ren from sor- row and|sin!|
w: 4.~Rest- ing with Je- sus!|la- bor is o’er!|Stilled are the rough waves of|strife;|
 [CF]2 C>[CF] [FA]2 F2 | [Fd]2 [Fc]>[F=B] (c2 A2) | [EG]2 [Gc][Ge] ([Fd]2 [FA])[F=B] | [Ec]8 | %8
w: Ho- li- est ser- vice,|loft- i- est aim! *|Pur- est of earth- * ly|joy.|
w: Faith- ful the prom- ise!|sac- red the vow! *|Je- sus is waiting * to|bless.|
w: Help- ing the help- less!|free- ing the slave! *|Striv- ing a heaven * to|win.|
w: An- gels sing wel- come|to the blest shore, *|Death does but lead~us * to|life.|
 [EB]3 [EA] [EG]2 [EA]2 | F2 [Fd]2 [Fc]4 | [EB]3 [EA] [EG]2 [EA]2 | [DF]2 [DG]2 [^CA]4 | %12
w: Blow, ye breez- es,|gent- ly blow;|Spread our an- them|far and wide:|
w: Hear in Heaven Thy|dwell- ing place:|Send the an- swer|far and wide:|
w: Aid us, bro- thers,|sis- ters, all;|Send the tid- ings|far and wide:|
w: Child- ren, raise a-|new your songs;|Send the e- choes|far and wide:|
 [DA]3 [DA] [_EF]2 [EF]2 | [DB]2 [Fc]2 !fermata![Fd]2 [Fd]>[Fd] | [Fc]2 [FA]2 [FB]2 [EG]2 | F8 |] %16
w: Je- sus all the|world must know: He for|all was cru- ci-|fied.|
w: He who free- ly|gave His grace, He for|all was cru- ci-|fied.|
w: Je- sus saves from|sin and thrall; He for|all was cru- ci-|fied.|
w: Rest in Christ, ye|wea- ry throngs: He for|all was cru- ci-|fied.|
V:2
 F2 C>F A2 F2 | x8 | x8 | x8 | x2 C3/2 x F2 x3/2 | x4 F4 | x8 | x8 | x8 | F2 x6 | x8 | x8 | x8 | %13
 x8 | x8 | F8 |] %16
V:3
 F,2 C,>F, A,2 F,2 | [F,B,]2 [F,A,]>[F,^G,] [F,A,]4 | [F,C]2 [F,C]>[F,C] [G,C]2 [G,=B,][G,B,] | %3
 [C,C]6 z2 | [F,A,]2 [F,A,]>[F,A,] [F,C]2 [F,A,]2 | [F,B,]2 [F,A,]>[F,^G,] (A,2 C2) | %6
 [G,C]2 [G,E][G,C] ([G,=B,]2 [G,C])[G,D] | [C,C]8 | [C,G,]3 [C,A,] [C,B,]2 [C,C]2 | %9
 [F,A,]2 [F,B,]2 [F,A,]4 | [C,G,]3 [C,A,] [C,B,]2 [^C,A,]2 | [D,A,]2 [B,,D,]2 [A,,E,]4 | %12
 [D,F,]3 [D,F,] [C,A,]2 [F,A,]2 | [G,B,]2 [F,A,]2 !fermata![B,,B,]2 [=B,,_A,]>[B,,A,] | %14
 [C,A,]2 [D,A,]2 [G,,D]2 (CB,) | [F,,F,A,]8 |] %16
V:4
 F,2 C,>F, A,2 F,2 | x8 | x8 | x8 | x8 | x4 F,4 | x8 | x8 | x8 | x8 | x8 | x8 | x8 | x8 | x6 C,2 | %15
 x8 |] %16

